.local/share/icons/Gruvbox-Plus-Dark/mimetypes/scalable/comics-book-alt3.svg

<svg width="256" height="256" viewBox="0 0 256 256" fill="none" xmlns="http://www.w3.org/2000/svg">
<g opacity="0.4" filter="url(#filter0_f)">
<path d="M55.0839 15.5636H155.608L216.009 75.7129L216.011 224.609C216.011 233.52 208.749 240.737 199.838 240.737H55.0838C46.1734 240.737 39 233.564 39 224.654V31.6474C39 22.737 46.1734 15.5636 55.0838 15.5636H55.0839Z" fill="#282828"/>
</g>
<path d="M55.0839 15H155.608L216.009 75.1493L216.011 224.045C216.011 232.956 208.749 240.174 199.838 240.174H55.0838C46.1734 240.174 39 233 39 224.09V31.0838C39 22.1734 46.1734 15 55.0838 15H55.0839Z" fill="url(#paint0_linear)"/>
<path fill-rule="evenodd" clip-rule="evenodd" d="M155.608 20.3191H55.0839C49.1112 20.3191 44.3191 25.1111 44.3191 31.0838V224.09C44.3191 230.063 49.1111 234.855 55.0838 234.855H199.838C205.83 234.855 210.692 229.999 210.692 224.046V75.1493L155.608 20.3191ZM155.608 15H55.0839C46.1735 15 39 22.1734 39 31.0838V224.09C39 233 46.1734 240.174 55.0838 240.174H199.838C208.749 240.174 216.011 232.956 216.011 224.045L216.009 75.1493L155.608 15Z" fill="url(#paint1_linear)"/>
<path d="M128.25 172.25C99.1764 151.068 84.3142 137.891 61 111.5C68.425 100.714 73.5867 95.0101 84 85.25C116.343 82.2357 135.24 82.2643 170.25 85.25C184.716 97.1882 189.464 102.7 195 111.5C173.63 136.84 158.799 150.067 128.25 172.25Z" fill="url(#paint2_linear)"/>
<path fill-rule="evenodd" clip-rule="evenodd" d="M58 111.398C65.8011 99.5209 71.6906 93.3517 83.5474 82.7846C116.479 80.6384 136.101 80.8262 172.453 82.7846C187.665 94.748 193.032 100.979 198 111.398C173.221 140.82 157.496 153.679 128.511 174.755C95.8686 151.35 80.5243 137.453 58 111.398ZM181.777 123.66C178.584 113.058 161.467 103.159 133.748 103.159C131.837 103.159 129.916 103.189 128.009 103.22C117.303 103.391 107.063 103.554 101.75 98.2408C95.4909 91.9817 110.52 88.6345 114.204 88.405C114.84 88.3654 115.469 88.3259 116.093 88.2868C135.6 87.0618 147.756 86.2985 163.319 93.5784C175.744 99.5047 181.901 104.817 189.378 115.038L181.777 123.66ZM170.984 88.5328C168.461 85.4032 153.579 87.0319 153.579 87.0319C153.579 87.0319 159.934 88.2134 169.515 92.1094C170.846 92.6507 173.243 91.3358 170.984 88.5328ZM191.134 112.611L192.348 110.759C186.988 102.832 183.65 99.3146 177.594 93.3229C179.485 98.8992 182.774 102.736 186.831 107.467C188.188 109.049 189.63 110.731 191.134 112.611ZM85.8467 87.5747C75.8824 96.2547 70.8545 101.137 64.5785 110.759C64.86 111.231 65.1344 111.693 65.4016 112.142L65.4033 112.145C69.1203 118.392 71.4418 122.294 72.1788 121.234C71.9172 105.543 76.9951 98.6681 89.2318 87.5747H85.8467ZM150.881 147.675C153.164 144.993 151.732 143.293 149.971 141.991C143.967 137.552 137.178 138.095 129.353 138.343C124.696 138.491 118.92 138.674 110.628 138.031C100.593 137.252 84.5693 132.474 84.5693 132.474C101.016 150.741 119.729 156.361 139.783 152.149C147.955 150.432 150.158 148.524 150.881 147.675ZM113.949 157.766C124.878 158.76 131.047 158.82 142.147 157.766L128.479 169.39C127.015 168.23 125.725 167.213 124.515 166.26L124.501 166.249C121.061 163.538 118.263 161.334 113.949 157.766Z" fill="url(#paint3_linear)"/>
<path opacity="0.25" d="M155.608 17V61.2306C155.608 70.141 162.867 77.1605 171.777 77.1605L216.009 77.1493V75.1493L155.608 17Z" fill="#282828"/>
<path d="M155.608 15V59.2306C155.608 68.141 162.867 75.1605 171.777 75.1605L216.009 75.1493L155.608 15Z" fill="url(#paint4_linear)"/>
<defs>
<filter id="filter0_f" x="23.8778" y="0.441412" width="207.255" height="255.418" filterUnits="userSpaceOnUse" color-interpolation-filters="sRGB">
<feFlood flood-opacity="0" result="BackgroundImageFix"/>
<feBlend mode="normal" in="SourceGraphic" in2="BackgroundImageFix" result="shape"/>
<feGaussianBlur stdDeviation="7.5611" result="effect1_foregroundBlur"/>
</filter>
<linearGradient id="paint0_linear" x1="39" y1="15" x2="39" y2="240.174" gradientUnits="userSpaceOnUse">
<stop offset="1e-07" stop-color="#076678"/>
<stop offset="1" stop-color="#458588"/>
</linearGradient>
<linearGradient id="paint1_linear" x1="39" y1="15" x2="39" y2="240.174" gradientUnits="userSpaceOnUse">
<stop offset="1e-07" stop-color="#fb4934"/>
<stop offset="1" stop-color="#cc241d"/>
</linearGradient>
<linearGradient id="paint2_linear" x1="137.38" y1="83" x2="137.974" y2="173.147" gradientUnits="userSpaceOnUse">
<stop stop-color="#fabd2f"/>
<stop offset="1" stop-color="#d79921"/>
</linearGradient>
<linearGradient id="paint3_linear" x1="58" y1="81.2446" x2="58" y2="174.755" gradientUnits="userSpaceOnUse">
<stop offset="1e-07" stop-color="#fb4934"/>
<stop offset="1" stop-color="#cc241d"/>
</linearGradient>
<linearGradient id="paint4_linear" x1="155.608" y1="15" x2="155.608" y2="75.1605" gradientUnits="userSpaceOnUse">
<stop offset="1e-07" stop-color="#fb4934"/>
<stop offset="1" stop-color="#cc241d"/>
</linearGradient>
</defs>
</svg>

<svg width="256" height="256" fill="none" version="1.1" viewBox="0 0 256 256" xmlns="http://www.w3.org/2000/svg">
  <path d="m55.08 15h100.5l60.4 60.15 2e-3 148.9c0 8.911-7.262 16.13-16.17 16.13h-144.8c-8.91 0-16.08-7.174-16.08-16.08v-193c0-8.91 7.173-16.08 16.08-16.08h1e-4z" fill="url(#paint0_linear)"/>
  <path d="m155.6 20.32h-100.5c-5.973 0-10.76 4.792-10.76 10.76v193c0 5.973 4.792 10.76 10.76 10.76h144.8c5.992 0 10.85-4.856 10.85-10.81v-148.9l-55.08-54.83zm0-5.319h-100.5c-8.91 0-16.08 7.173-16.08 16.08v193c0 8.91 7.173 16.08 16.08 16.08h144.8c8.911 0 16.17-7.218 16.17-16.13l-2e-3 -148.9-60.4-60.15z" clip-rule="evenodd" fill="url(#paint1_linear)" fill-rule="evenodd"/>
  <path d="m128.2 172.2c-29.07-21.18-43.94-34.36-67.25-60.75 7.425-10.79 12.59-16.49 23-26.25 32.34-3.014 51.24-2.986 86.25 0 14.47 11.94 19.21 17.45 24.75 26.25-21.37 25.34-36.2 38.57-66.75 60.75z" fill="url(#paint2_linear)"/>
  <path d="m58 111.4c7.801-11.88 13.69-18.05 25.55-28.61 32.93-2.146 52.55-1.958 88.91 0 15.21 11.96 20.58 18.19 25.55 28.61-24.78 29.42-40.5 42.28-69.49 63.36-32.64-23.4-47.99-37.3-70.51-63.36zm123.8 12.26c-3.193-10.6-20.31-20.5-48.03-20.5-1.911 0-3.832 0.03-5.739 0.061-10.71 0.171-20.95 0.334-26.26-4.979-6.259-6.259 8.77-9.606 12.45-9.836 0.636-0.0396 1.265-0.0791 1.889-0.1182 19.51-1.225 31.66-1.988 47.23 5.292 12.42 5.926 18.58 11.24 26.06 21.46l-7.601 8.622zm-10.79-35.13c-2.523-3.13-17.4-1.501-17.4-1.501s6.355 1.182 15.94 5.078c1.331 0.5413 3.728-0.7736 1.469-3.577zm20.15 24.08 1.214-1.852c-5.36-7.927-8.698-11.44-14.75-17.44 1.891 5.576 5.18 9.413 9.237 14.14 1.357 1.582 2.799 3.264 4.303 5.144zm-105.3-25.04c-9.964 8.68-14.99 13.56-21.27 23.18 0.2815 0.472 0.5559 0.934 0.8231 1.383l0.0017 3e-3c3.717 6.247 6.038 10.15 6.776 9.089-0.2616-15.69 4.816-22.57 17.05-33.66h-3.385zm65.03 60.1c2.283-2.682 0.851-4.382-0.91-5.684-6.004-4.439-12.79-3.896-20.62-3.648-4.657 0.148-10.43 0.331-18.72-0.312-10.04-0.779-26.06-5.557-26.06-5.557 16.45 18.27 35.16 23.89 55.21 19.68 8.172-1.717 10.38-3.625 11.1-4.474zm-36.93 10.09c10.93 0.994 17.1 1.054 28.2 0l-13.67 11.62c-1.464-1.16-2.754-2.177-3.964-3.13l-0.014-0.011c-3.44-2.711-6.238-4.915-10.55-8.483z" clip-rule="evenodd" fill="url(#paint3_linear)" fill-rule="evenodd"/>
  <path d="m155.6 17v44.23c0 8.91 7.259 15.93 16.17 15.93l44.23-0.0112v-2l-60.4-58.15z" fill="#282828" opacity=".25"/>
  <path d="m155.6 15v44.23c0 8.91 7.259 15.93 16.17 15.93l44.23-0.0112-60.4-60.15z" fill="url(#paint4_linear)"/>
  <defs>
    <linearGradient id="paint0_linear" x1="39" x2="39" y1="15" y2="240.2" gradientUnits="userSpaceOnUse">
      <stop stop-color="#076678" offset="1e-7"/>
      <stop stop-color="#458588" offset="1"/>
    </linearGradient>
    <linearGradient id="paint1_linear" x1="39" x2="39" y1="15" y2="240.2" gradientUnits="userSpaceOnUse">
      <stop stop-color="#fb4934" offset="1e-7"/>
      <stop stop-color="#cc241d" offset="1"/>
    </linearGradient>
    <linearGradient id="paint2_linear" x1="137.4" x2="138" y1="83" y2="173.1" gradientUnits="userSpaceOnUse">
      <stop stop-color="#fabd2f" offset="0"/>
      <stop stop-color="#d79921" offset="1"/>
    </linearGradient>
    <linearGradient id="paint3_linear" x1="58" x2="58" y1="81.24" y2="174.8" gradientUnits="userSpaceOnUse">
      <stop stop-color="#fb4934" offset="1e-7"/>
      <stop stop-color="#cc241d" offset="1"/>
    </linearGradient>
    <linearGradient id="paint4_linear" x1="155.6" x2="155.6" y1="15" y2="75.16" gradientUnits="userSpaceOnUse">
      <stop stop-color="#fb4934" offset="1e-7"/>
      <stop stop-color="#cc241d" offset="1"/>
    </linearGradient>
  </defs>
</svg>
